!!!OTL: Das Stortebekerlied (1402)
!!!ARE: Europa, Mitteleuropa, Deutschland
!!!SCT: A0366
!!!YEM: Copyright 1995, estate of Helmut Schaffrath.
**kern
*ICvox
*Ivox
*M4/4
*k[f#]
*G:
=1
{2cc
2cc
=2
2cc
4cc
4a
=3
4g
4a
4b
4cc
=4
2dd
4r}
{4dd
=5
2ee
4dd
4dd
=6
2cc
4cc
4a
=7
4g
4a
4b
4cc
=8
2dd
4r}
{4dd
=9
2ee
4dd
4dd
=10
2.cc
4cc
=11
2b
2a
=12
1g}
==
!!!AGN: Romanze, Ballade, Lied, Personenlied
!! M. Franck, Fasciculus quodlibeticus 1615 No. 6.
!!!ONB: ESAC (Essen Associative Code) Database: ALTDEU
!!!AMT: simple quadruple
!!!AIN: vox
!!!EED: Helmut Schaffrath
!!!EEV: 1.0
*-
